admin/src/theme/img/safetyequipment/l.svg

<svg width="32" height="32" viewBox="0 0 32 32" xmlns="http://www.w3.org/2000/svg">
  <g fill="none" fill-rule="evenodd">
    <path d="M11.24 30.8571429h9.5257143V32H11.24v-1.1428571Zm7.4285714-20.1885715h-5.3314285l2.6685714-4.57142854 2.6685714 4.57142854h-.0057143ZM13.3371429 11.24h5.3314285L16 15.8114286 13.3314286 11.24h.0057143Zm2.0971428-.5714286V11.24h1.1428572v-.5714286h-1.1428572Zm0 4.1885715v.9142857h.5714286l-.5714286-.9142857Zm0 0v.9142857h.5714286l-.5714286-.9142857Zm0 .9142857h1.1428572v15.0857143h-1.1428572V15.7714286Zm1.1428572-.9142857v.9142857h-.5714286l.5714286-.9142857Z" fill="#EC0E0E" fill-rule="nonzero"/>
    <path d="M0 0h32v32H0z"/>
  </g>
</svg>

<?xml version="1.0" encoding="UTF-8"?>
<svg width="32px" height="32px" viewBox="0 0 32 32" version="1.1" xmlns="http://www.w3.org/2000/svg" xmlns:xlink="http://www.w3.org/1999/xlink">
    <title>A3233D16-A5B3-4B62-B0C5-4F6D920DE354</title>
    <g id="Squat-laskuri" stroke="none" stroke-width="1" fill="none" fill-rule="evenodd">
        <g id="colors_and_typography" transform="translate(-1246.000000, -906.000000)">
            <g id="turvalaite_ikonit" transform="translate(718.000000, 906.000000)">
                <g id="kardinaali_itä" transform="translate(528.000000, 0.000000)">
                    <path d="M11.24,30.8571429 L20.7657143,30.8571429 L20.7657143,32 L11.24,32 L11.24,30.8571429 Z M18.6685714,10.6685714 L13.3371429,10.6685714 L16.0057143,6.09714286 L18.6742857,10.6685714 L18.6685714,10.6685714 Z M13.3371429,11.24 L18.6685714,11.24 L16,15.8114286 L13.3314286,11.24 L13.3371429,11.24 Z M15.4342857,10.6685714 L15.4342857,11.24 L16.5771429,11.24 L16.5771429,10.6685714 L15.4342857,10.6685714 Z M15.4342857,14.8571429 L15.4342857,15.7714286 L16.0057143,15.7714286 L15.4342857,14.8571429 Z M15.4342857,14.8571429 L15.4342857,15.7714286 L16.0057143,15.7714286 L15.4342857,14.8571429 Z M15.4342857,15.7714286 L16.5771429,15.7714286 L16.5771429,30.8571429 L15.4342857,30.8571429 L15.4342857,15.7714286 Z M16.5771429,14.8571429 L16.5771429,15.7714286 L16.0057143,15.7714286 L16.5771429,14.8571429 Z" id="Shape" fill="#EC0E0E" fill-rule="nonzero"></path>
                    <rect id="Rectangle" x="0" y="0" width="32" height="32"></rect>
                </g>
            </g>
        </g>
    </g>
</svg>
